X:1
T:Redeemed by the Blood
T:Redeemed by the Blood
T:Arranged by Robert E. McNeill
T:Martin Wells Knapp, 1901
T:Public Domain Courtesy of the Cyber Hymnal™
T:Public Domain Courtesy of the Cyber Hymnal™
C:Arranged by Robert E. McNeill
Z:Public Domain
Z:Courtesy of the Cyber Hymnal™
%%score ( 1 2 ) ( 3 4 )
L:1/8
Q:1/4=113
M:3/4
K:E
V:1 treble 
V:2 treble 
V:3 bass 
V:4 bass 
V:1
 [EG]2 | [EB]3 [EB] [EB]2 | [EG][EG] z2 [EG]2 | [EG]3 [EG] [EG]2 | [CE]4 [CE]2 | [DF]3 [DF] [DF]2 | %6
w: 1.~John|saw up- on|Pat- mos, a|vi- sion so|bright; The|saints from all|
w: 2.~Sal-|va- tion and|hon- or and|wis- dom and|might And|glo- ry and|
w: 3.~A|few from the|hon- ored, and|no- ble by|birth, The|most had been|
w: 4.~From|great trib- u-|la- tion they|hi- ther re-|pair; And|vic- tors for-|
w: 5.~For|this they are|hon- ored, and|serve day and|night, And|near- est the|
w: 6.~Their|tears are all|ban- ished, God|wipes them a-|way, En-|throned in His|
 [DF]2 [EG]2 [FA]2 | [FA]2 [EG]2 [DF]2 | [EG]4 [EG]2 | [GB]3 [GB] [GB]2 | [EG][EG] z2 [EG]2 | %11
w: na- tions in|gar- ments of|light, With|palms and re-|joic- ing be-|
w: bless- ing, their|voic- es u-|nite, As-|crib- ing to|Je- sus, the|
w: hum- ble or|out- casts on|earth; Trans-|formed by the|Spir- it, their|
w: ev- er, God’s|glo- ry they|share; From|sword and from|scaf- fold, from|
w: throne they re-|joice in His|light; They|hun- ger no|more, by the|
w: pre- sence for-|ev- er they|stay; What~re-|ward and what|hon- or for|
 [EA]3 [EA] [EA]2 | [Ec]4 ([Ec][Ec]) | [EB]3 [EB] [EB]2 | [EG][EG] z2 (E[EF]) | [EG]2 [EG]3 [B,F] | %16
w: fore the white|throne, They *|gave all the|glo- ry to *|Je- sus a-|
w: Lamb that was|slain, Soon *|com- ing in|glo- ry, for- *|ev- er to|
w: an- thems they|bring, And~a- *|dor- ing their|Sav- ior, u- *|nit- ed they|
w: dun- geon and|stake, Naught *|ev- er could|move them their *|Lord to for-|
w: Lamb they are|fed; By *|Him to the|fount- ain of *|wa- ters are|
w: ser- vice so|small! One *|hour of such|bless- ing re- *|pays them for|
 [B,E]4 ||"^Refrain" ([B,E]>[EG]) | [GB]4 [GB]>[GB] | [EG]4 [EG]2 | [EG]4 [EG]>[EG] | [GB]4 [GB]2 | %22
w: lone.||||||
w: reign.||||||
w: sing.|Re- *|deemed by the|blood; re-|deemed by the|blood; Ar-|
w: sake.||||||
w: led.||||||
w: all.||||||
 [Ge]3 [Bd] [Ac]2 | [GB] [EG]3 (!fermata![Ec][FA]) | [EG]2 [EG]3 [B,F] | [B,E]4 |] %26
w: ||||
w: ||||
w: rayed in white|gar- ments, re- *|deemed by the|blood.|
w: ||||
w: ||||
w: ||||
V:2
 x2 | x6 | x6 | x6 | x6 | x6 | x6 | x6 | x6 | x6 | x6 | x6 | x6 | x6 | x4 E x | x6 | x4 || x2 | %18
 x6 | x6 | x6 | x6 | x6 | x6 | x6 | x4 |] %26
V:3
 [E,B,]2 | [E,G,]3 [E,G,] [E,G,]2 | [E,B,][E,B,] z2 [E,B,]2 | [C,C]3 [C,C] [C,C]2 | %4
 [C,G,]4 [C,G,]2 | [B,,B,]3 [B,,B,] [B,,B,]2 | [B,,B,]2 [B,,B,]2 [B,,B,]2 | %7
 [B,,B,]2 [B,,B,]2 [B,,B,]2 | [E,B,]4 [E,B,]2 | [E,E]3 [E,E] [E,E]2 | [E,B,][E,B,] z2 [E,B,]2 | %11
 [A,,C]3 [A,,C] [A,,C]2 | [A,,A,]4 A,A, | [E,G,]3 [E,G,] [E,G,]2 | %14
 [E,B,][E,B,] z2 ([C,^A,][C,A,]) | [B,,B,]2 [B,,B,]3 [B,,A,] | [E,G,]4 || ([E,G,]>[E,B,]) | %18
 [E,E]4 [E,E]>[E,E] | [E,B,]4 [E,B,]2 | [E,B,]4 [E,B,]>[E,B,] | [E,E]4 [E,B,]2 | %22
 [E,B,]3 [E,B,] [E,E]2 | [E,E] [E,B,]3 (!fermata![A,,E][A,,C]) | [B,,B,]2 [B,,B,]3 [B,,A,] | %25
 [E,G,]4 |] %26
V:4
 x2 | x6 | x6 | x6 | x6 | x6 | x6 | x6 | x6 | x6 | x6 | x6 | x4 (A,A,) | x6 | x6 | x6 | x4 || x2 | %18
 x6 | x6 | x6 | x6 | x6 | x6 | x6 | x4 |] %26

